X: 37968
T: Spare Leg, The
R: polka
M: 2/4
K: Eminor
|:E>F GB|EB B/A/G|F>G Ad|Dd A/G/F|
E>F GB|EB B/A/G|e>d BG|Ac B/A/G:|
|:g>e Bg|eb b/a/g/f/|g>e Be|da a/g/f|
g>e Bg|eb b/a/g/f/|e>d BG|Ac B/A/G:|
|:Bd dB/d/|ed gz|b2 g/a/b/g/|ag dB|
Bd dB/d/|ed gd|e>d BG|Ac B/A/G:|

